icons/rocket.svg

<svg width="24" height="24" viewBox="0 0 24 24" fill="none" xmlns="http://www.w3.org/2000/svg">
<path d="M11.56 3.16201C10.357 4.11801 7.227 7.03501 7.012 11.612C6.912 13.729 7.436 16.202 9.062 19H14.988C16.582 16.201 17.091 13.728 16.987 11.61C16.762 7.03901 13.677 4.12401 12.489 3.16401C12.3573 3.0579 12.1934 2.99988 12.0243 2.99951C11.8553 2.99915 11.6911 3.05647 11.559 3.16201H11.56Z" stroke="white" stroke-width="2" stroke-linecap="round" stroke-linejoin="round"/>
<path d="M7.012 11.6118L4.202 14.5368C4.11841 14.6218 4.05725 14.7263 4.024 14.8408C3.99309 14.9519 3.99206 15.0692 4.021 15.1808L5.361 20.4108C5.393 20.5358 5.461 20.6508 5.559 20.7468C5.66057 20.8445 5.784 20.9165 5.919 20.9568C6.05953 20.9994 6.20775 21.0103 6.353 20.9888C6.49542 20.9687 6.63128 20.916 6.75 20.8348L9.396 18.9998" stroke="white" stroke-width="2" stroke-linecap="round" stroke-linejoin="round"/>
<path d="M16.987 11.6099L19.799 14.5369C19.8823 14.622 19.9431 14.7264 19.976 14.8409C20.007 14.9519 20.008 15.0692 19.979 15.1809L18.639 20.4109C18.6051 20.5389 18.5366 20.6551 18.441 20.7469C18.3395 20.8446 18.216 20.9166 18.081 20.9569C17.9405 20.9995 17.7923 21.0104 17.647 20.9889C17.5046 20.9687 17.3687 20.916 17.25 20.8349L14.604 18.9999" stroke="white" stroke-width="2" stroke-linecap="round" stroke-linejoin="round"/>
<path d="M12 10H12.01" stroke="white" stroke-width="2" stroke-linecap="round" stroke-linejoin="round"/>
<path d="M10 22H14" stroke="white" stroke-width="2" stroke-linecap="round" stroke-linejoin="round"/>
</svg>

<svg
  width="24"
  height="24"
  viewBox="0 0 24 24"
  xmlns="http://www.w3.org/2000/svg"
  fill="none"
  stroke="currentColor"
  stroke-width="2"
  stroke-linecap="round"
  stroke-linejoin="round"
>
  <path d="M11.56 3.162c-1.203.956-4.333 3.873-4.548 8.45-.1 2.117.424 4.59 2.05 7.388h5.926c1.594-2.799 2.103-5.272 1.999-7.39-.225-4.571-3.31-7.486-4.498-8.446a.743.743 0 0 0-.93-.002z" />
  <path d="M7.012 11.612l-2.81 2.925a.72.72 0 0 0-.178.304.655.655 0 0 0-.003.34l1.34 5.23c.032.125.1.24.198.336a.885.885 0 0 0 .36.21.994.994 0 0 0 .434.032.935.935 0 0 0 .397-.154L9.396 19" />
  <path d="M16.987 11.61l2.812 2.927a.719.719 0 0 1 .177.304.654.654 0 0 1 .003.34l-1.34 5.23a.722.722 0 0 1-.198.336.884.884 0 0 1-.36.21.993.993 0 0 1-.434.032.935.935 0 0 1-.397-.154L14.604 19" />
  <path d="M12 10h.01" />
  <path d="M10 22h4" />
</svg>
